X:1
T:Variant på Dansa Liten Piga
R:Polska
O:Västerbotten
Z:Anton Teljebäck
C:Thomas Andersson
M:3/4
L:1/8
K:Dm
|: D>d d<d d>d | (3(ded) (^c<A) A2- | (3A(c=B) (3G(BG) (3F(AF) | (3(EFE) Dz (A,2 |[DA,])>d d<d d>d | (3(ded) (^c<A) A2- | (3A(c=B) (3G(BG) (3F(AF) | (3(EFE) D4 :|
|:D>E (3F(DF) (3F(DF) | FE ^CE CE |D>E (3F(DF) (3F(DF) | FE ^CE CE |D>E (3F(DF) (3E(^CE) | Dz D4 :|

